assets/images/decor-banner1.svg

<svg width="210" height="185" viewBox="0 0 210 185" fill="none" xmlns="http://www.w3.org/2000/svg">
<path d="M2.42761 84.8153L42.4383 26.7855C43.7409 24.8963 46.6805 26.3307 45.993 28.52L15.5848 125.353C14.884 127.585 17.9275 128.999 19.1813 127.024L97.9863 2.92192C99.2401 0.947392 102.284 2.3617 101.583 4.59323L52.8346 159.829C52.1226 162.096 55.2539 163.492 56.464 161.446L148.872 5.2649C150.128 3.14199 153.363 4.73032 152.451 7.02239L83.6784 179.959C82.7654 182.255 86.0098 183.841 87.2612 181.711L185.246 14.9232L120.755 154.717C119.751 156.895 122.732 158.674 124.171 156.755L188.549 70.9271C189.898 69.1281 192.73 70.5809 192.057 72.7263L161.345 170.527C160.64 172.769 163.71 174.178 164.951 172.182L204.305 108.906C205.546 106.91 208.616 108.319 207.912 110.561L191.725 162.106" stroke="#FFB75E" stroke-width="3" stroke-linecap="round"/>
</svg>

<svg width="210" height="185" fill="none" xmlns="http://www.w3.org/2000/svg"><path d="m2.428 84.815 40.01-58.03c1.303-1.889 4.242-.454 3.555 1.735l-30.408 96.833c-.701 2.232 2.342 3.646 3.596 1.671L97.986 2.922c1.254-1.975 4.298-.56 3.597 1.671L52.835 159.83c-.712 2.267 2.419 3.663 3.629 1.617L148.872 5.265c1.256-2.123 4.491-.535 3.579 1.757L83.678 179.96c-.913 2.296 2.332 3.882 3.583 1.752l97.985-166.788-64.491 139.794c-1.004 2.178 1.977 3.957 3.416 2.038l64.378-85.828c1.349-1.799 4.181-.346 3.508 1.8l-30.712 97.8c-.705 2.242 2.365 3.651 3.606 1.655l39.354-63.276c1.241-1.996 4.311-.587 3.607 1.655l-16.187 51.545" stroke="#FFB75E" stroke-width="3" stroke-linecap="round"/></svg>
